X: 1
T:Drowsy Maggie
M:4/4
L:1/8
Q:240
K:Em
"Em"(3EEE BE dE BE|"Em"(3EEE BE "D"AF DF|
"Em"(3EEE BE dE BE|"Em"BABc "D"dBAF|!
"Em"(3EEE BE dE BE|"Em"(3EEE BE "D"AF DF|
"Em"(3EEE BE dE BE|"G"BABc "D"dAFA|!
"D"d2 fd "A"c2ec|"D"defg afge|
"D"d2 fd "A"c2 ec|"G"BABc "D"dAFA|!
"D"d2 fd "A"c2 ec|"D"defg a2fg|
"D"af"A"ge "D"fd"A"ec|"G"BA Bc "D"dB AF|
